X:1
T:Cleopha
T:SCOTT JOPLIN.
T:“CLEOPHA.”
T:MARCH AND TWO-STEP.
T:Public Domain
T:Public Domain
T:Public Domain
T:Public Domain
C:Scott Joplin
Z:Public Domain
%%score { ( 1 3 4 ) | 2 }
L:1/8
Q:1/4=95
M:2/4
K:F
V:1 treble nm="Piano"
V:3 treble 
V:4 treble 
V:2 bass 
V:1
"^Tempo di Marcia." c |"_L.H.""^R.H." ff/g/ ff | ff/g/ ff | ff/g/ ^g/a/b/=b/ | %4
 c' !^![Cc]!^![Dd]!^![Ee] |:!f! [Ff]2 [^D^d]2 | z (c'/=b/ c'/d'/c') | [Ff]2 [^D^d]2 | %8
 z (c/d/ e/f/g) | [Bb]2 [Gg]2 | z (a/^g/ a/=b/c') | [Gg]2 [=B=b][dd'] | %12
 [cc']!^![Cc] !^![Dd]!^![Ee] | [Ff]2 [^D^d]2 | z (c'/=b/ c'/d'/c') | [Ff]2 [^D^d]2 | %16
 z (c/d/ e/f/g) | [Bb]2 [Gg]2 | [cc']2 [df^gd']2 | [Ff]2 [Gg]2 |1 [FAcf]!^![Cc] !^![Dd]!^![Ee] :|2 %21
 [FAcf]2 c^c |: d>=c ^F2- | F/^F/A/c/ [F_e][Fd] | [Gd]>B G2- | G/d/g/b/ [dgbd'][^dgb^d'] | %26
 [egbe']>b [egbd']2- | [egbd']/e/g/b/ [ebd'][ebd'] | [fad']>a [fac']2- | [fac']/c'/a/f/ c^c | %30
 d>c ^F2- | F/^F/A/c/ [F_e][Fd] | [Gd]>B G2- | G/g/b/d'/ [aa'][gg'] | [ff']>a [ee'][dd'] | %35
 [cc']>f [c^fb][cda] | [=B=fa]>[Bf] [_Beg][EBc] |1 [FAf]2 c^c :|2 [FAf] !^![Cc]!^![Dd]!^![Ee] || %39
 [Ff]2 [^D^d]2 | z (c'/=b/ c'/d'/c') | [Ff]2 [^D^d]2 | z (c/d/ e/f/g) | [Bb]2 [Gg]2 | %44
 z (a/^g/ a/=b/c') | [Gg]2 [=B=b][dd'] | [cc']!^![Cc] !^![Dd]!^![Ee] | [Ff]2 [^D^d]2 | %48
 z (c'/=b/ c'/d'/c') | [Ff]2 [^D^d]2 | z (c/d/ e/f/g) | [Bb]2 [Gg]2 | [cc']2 [df^gd']2 | %53
 [Ff]2 [Gg]2 | [FAcf]2 [fac'f'] ||[K:Bb] F |: d>c BF | d>c B/F/f/d/ | B/e/g/b/ c'/b/B/c/ | %59
 [Fd]2- [Fd]F | d>c BF | d>c Bd | d/c/B/G/ =E/G/B/d/ | c2- cF | d>c BF | d>c B/F/f/d/ | %66
 B/e/g/b/ c'/b/B/c/ | [Fd]2- [Fd]B/d/ | c>G Bc | d>g f/d/c/B/ | [=EG]>[EG] [_EF][EF] |1 %71
 [DB]2- [DB]F :|2 [DB][Ff]/[Ff]/ [Ff][Gg] |: [Aea][^Ge^g]/[Aea]/- [Aea]/[Geg]/[Aea] | %74
 [Geg][^Fe^f]/[Geg]/- [Geg]/[Aea]/[Geg]/[_Ge_g]/ | [Fdf]2- [Fdf]/F/B/d/ | [Ff]2 [gg'][ff'] | %77
 [ee']2- [ee']/c'/a/g/ | f2 [ff'][ee'] | [dd']2- [dd']/b/a/g/ | f2 [Ff][Gg] | %81
 [Aea][^Ge^g]/[Aea]/- [Aea]/[Geg]/[Aea] | [Geg][^Fe^f]/[Geg]/- [Geg]/[Aea]/[Geg]/[_Ge_g]/ | %83
 [Fdf]2- [Fdf]/F/B/d/ | [FBdf]2- [FBdf]B/d/ | c>G Bc | d>g f/d/c/B/ | [=EG]>[EG] [_EF][EF] |1 %88
 [DB][Ff]/[Ff]/ [Ff][Gg] :|2 [DB]2 [Bdb]!fine! |] %90
V:2
 z |[I:staff -1] [FAc]4 | [FBd]2 [FB_d]2 | [FAc]2 [_DF=B]2 | %4
 [CEGc][I:staff +1] !^![C,,C,]!^![D,,D,]!^![E,,E,] |:!ped! [F,,F,]2 [^F,,^F,]2!ped-up! | %6
!ped! [G,,G,][B,CE] C,[B,CE]!ped-up! |!ped! [F,,F,]2 [^F,,^F,]2!ped-up! | %8
!ped! [G,,G,][B,CE] C,[B,CE]!ped-up! |!ped! [G,,G,][B,CE] [C,C][B,,B,]!ped-up! | %10
!ped! [A,,A,][A,CE] [^F,,^F,][A,C^D]!ped-up! |!ped! [G,,G,][G,CE] G,,[G,=B,F]!ped-up! | %12
 [CE]!^![C,,C,] !^![D,,D,]!^![E,,E,] |!ped! [F,,F,]2 [^F,,^F,]2!ped-up! | %14
!ped! [G,,G,][B,CE] C,[B,CE]!ped-up! |!ped! [F,,F,]2 [^F,,^F,]2!ped-up! | %16
!ped! [G,,G,][B,CE] C,[B,CE]!ped-up! |!ped! [G,,G,][B,CE] [C,C][B,,B,]!ped-up! | %18
!ped! [A,,A,][A,CF] [=B,,=B,]2!ped-up! |!ped! [C,C]2 [C,,C,]2!ped-up! |1 %20
 [F,,F,]!^![C,,C,] !^![D,,D,]!^![E,,E,] :|2 [F,,F,][C,C] [A,,A,][G,,G,] |: %22
 [^F,,^F,][A,CD] D,,[A,CD] | A,,[^F,CD] D,,[A,CD] | G,,[G,B,D] D,,[G,B,D] | %25
 G,,[G,B,D] [D,,D,][_D,,_D,] | [C,,C,][B,CE] [E,,E,][B,CE] | [G,,G,][B,CE] C,[B,CE] | %28
 F,[A,CF] C,[A,CF] | F,,[A,CF] [A,,A,][G,,G,] | [^F,,^F,][A,CD] D,,[A,CD] | A,,[^F,CD] D,,[A,CD] | %32
 G,,[G,B,D] D,,[G,B,D] | G,,[G,B,D] B,,[G,B,_D] | C,[A,C] =B,,[^G,DF] | C,[A,CF] [D,,D,][^F,,^F,] | %36
 G,,G, C,C |1 [F,,F,][C,C] [A,,A,][G,,G,] :|2 [F,,F,] !^![C,,C,]!^![D,,D,]!^![E,,E,] || %39
!ped! [F,,F,]2 [^F,,^F,]2!ped-up! |!ped! [G,,G,][B,CE] C,[B,CE]!ped-up! | %41
!ped! [F,,F,]2 [^F,,^F,]2!ped-up! |!ped! [G,,G,][B,CE] C,[B,CE]!ped-up! | %43
!ped! [G,,G,][B,CE] [C,C][B,,B,]!ped-up! |!ped! [A,,A,][A,CE] [^F,,^F,][A,C^D]!ped-up! | %45
!ped! [G,,G,][G,CE] G,,[G,=B,F]!ped-up! | [CE]!^![C,,C,] !^![D,,D,]!^![E,,E,] | %47
!ped! [F,,F,]2 [^F,,^F,]2!ped-up! |!ped! [G,,G,][B,CE] C,[B,CE]!ped-up! | %49
!ped! [F,,F,]2 [^F,,^F,]2!ped-up! |!ped! [G,,G,][B,CE] C,[B,CE]!ped-up! | %51
!ped! [G,,G,][B,CE] [C,C][B,,B,]!ped-up! |!ped! [A,,A,][A,CF] [=B,,=B,]2!ped-up! | %53
!ped! [C,C]2 [C,,C,]2!ped-up! | [F,,F,]2 [F,,,F,,] ||[K:Bb] z |: B,,[F,B,D] F,,[F,B,D] | %57
 B,,[F,B,D] F,,[F,B,D] | [E,,E,][G,B,E] [E,,E,][_G,B,E] | [B,,B,][F,B,D] F,,[F,B,D] | %60
 B,,[F,B,D] F,,[F,B,D] | ^F,,[A,CD] G,,[G,B,D] | =E,[B,C=E] C,[B,CE] | %63
 [F,A,C_E][F,,F,] [G,,G,][A,,A,] | [B,,B,][F,B,D] F,,[F,B,D] | B,,[F,B,D] F,,[F,B,D] | %66
 [E,,E,][G,B,E] [E,,E,][_G,B,E] | B,,[F,B,D] F,,[F,B,D] | [E,,E,][G,B,E] [_G,,_G,][G,B,E] | %69
 [F,,F,][F,B,D] F,,[F,B,D] | C,[B,C] F,[A,C] |1 [B,,B,][A,,A,] [G,,G,][F,,F,] :|2 %72
 [B,,B,] z [D,D][_D,_D] |: [C,C][F,A,E] F,,[F,CE] | A,,[F,CE] F,,[F,A,E] | B,,[F,B,D] F,,[F,B,D] | %76
 B,,[F,B,D] F,,[F,B,D] | C,[F,A,E] F,,[F,A,E] | A,,[F,CE] F,,[F,A,E] | B,,[F,B,D] [=E,B,^C]2 | %80
 [F,B,D][F,,F,] [D,D][_D,_D] | [C,C][F,A,E] F,,[F,CE] | A,,[F,CE] F,,[F,A,E] | %83
 B,,[F,B,D] F,,[F,B,D] | [B,,B,][_A,,_A,] [G,,G,][F,,F,] | [E,,E,][G,B,E] [_G,,_G,][G,B,E] | %86
 [F,,F,][F,B,D] F,,[F,B,D] | C,[B,C] F,[A,C] |1 [B,,B,] z [D,D][_D,_D] :|2 %89
 [B,,B,][F,,F,] [B,,,B,,] |] %90
V:3
 x | x4 | x4 | x4 | x4 |: z [Ac] z [Ac] | [EBce]4 | z [Ac] z [Ac] | [EBce]4 | z [eg] z [ce] | %10
 [cc']4 | z [ce] x2 | x4 | z [Ac] z [Ac] | [EBce]4 | z [Ac] z [Ac] | [EBce]4 | z [eg] z [ce] | %18
 z [fa] d'2 | z [Ac] z [EBc] |1 x4 :|2 x4 |: x4 | x4 | x4 | x4 | x4 | x4 | x4 | x4 | x4 | x4 | x4 | %33
 x4 | x4 | x4 | x4 |1 x4 :|2 x4 || z [Ac] z [Ac] | [EBce]4 | z [Ac] z [Ac] | [EBce]4 | %43
 z [eg] z [ce] | [cc']4 | z [ce] x2 | x4 | z [Ac] z [Ac] | [EBce]4 | z [Ac] z [Ac] | [EBce]4 | %51
 z [eg] z [ce] | z [fa] d'2 | z [Ac] z [EBc] | x3 ||[K:Bb] x |: x4 | x4 | x4 | x4 | x4 | x4 | x4 | %63
 x4 | x4 | x4 | x4 | x4 | x4 | x4 | x4 |1 x4 :|2 x4 |: x4 | x4 | x4 | x4 | x4 | x4 | x4 | x4 | x4 | %82
 x4 | x4 | x4 | x4 | x4 | x4 |1 x4 :|2 x3 |] %90
V:4
 x | x4 | x4 | x4 | x4 |: x4 | x4 | x4 | x4 | x4 | f2 z2 | x4 | x4 | x4 | x4 | x4 | x4 | x4 | x4 | %19
 x4 |1 x4 :|2 x4 |: x4 | x4 | x4 | x4 | x4 | x4 | x4 | x4 | x4 | x4 | x4 | x4 | x4 | x4 | x4 |1 %37
 x4 :|2 x4 || x4 | x4 | x4 | x4 | x4 | f2 z2 | x4 | x4 | x4 | x4 | x4 | x4 | x4 | x4 | x4 | x3 || %55
[K:Bb] x |: x4 | x4 | x4 | x4 | x4 | x4 | x4 | x4 | x4 | x4 | x4 | x4 | x4 | x4 | x4 |1 x4 :|2 %72
 x4 |: x4 | x4 | x4 | x4 | x4 | x4 | x4 | x4 | x4 | x4 | x4 | x4 | x4 | x4 | x4 |1 x4 :|2 x3 |] %90

